X: 39050
T: Sweat House, The
R: reel
M: 4/4
K: Edorian
E2FD E2FA|BdAB defd|edef d2ed|BdAF DEFD|
E2FE BEFA|BdAB defd|edef dBAF|1 DEFD E2AF:|2 DEFD E2FA||
Be~e2 fded|BdAB dAFA|Bee2 dcde|fdad gded|
Be~e2 fded|BdAB defd|edef dBAF|1 DEFD E2FA:|2 DEFD E2AF||

